X: 63
T: Domine non est exaltatum
N: Derived from Mar2031-Domine_non_est_exaltatum.krn
C: Johannes Martini
%%abc-version 2.0
%%abcx-abcm2ps-target-version 5.9.1 (29 Sep 2008)
%%abc-creator hum2abc beta
%%abcx-conversion-date 2019/02/17 07:19:42
%%abc-edited-by Jesse Rodin
%%abc-edited-by Chris Gage 02-10-2014
%%abcx-initial-encoding-date 2014/06/20/
%%humdrum-veritas 2935106156
%%humdrum-veritas-data 2506659782
%%linebreak <none>
%%barnumbers 0
L: 1/4
M: 4/2
Q: 1/2=120
%%staves {1 2}
V: 1 clef=treble
V: 2 clef=treble-8
K: C
[V:1] A4A2A2 | 
[V:2] A4c2c2 | 
[V:1] A2A2A4 | 
[V:2] c2c2c4 | 
[V:1] G2F2E2F2- | 
[V:2] B2A2G2A2- | 
[V:1] F2EDC2D2- | 
[V:2] A2GFE2D2 | 
[V:1] D2^C2D4 ||  
[V:2] E4D4 ||  
[V:1] A4A4 | 
[V:2] A4c4 | 
[V:1] A2A2A2A2 | 
[V:2] c2c2c2c2 | 
[V:1] A2A2A4 | 
[V:2] c2c2A4 | 
[V:1] z4A4 | 
[V:2] z4c4 | 
[V:1] A4G2F2 | 
[V:2] c4B2A2 | 
[V:1] G2A4G2 | 
[V:2] B2c4B2 | 
[V:1] F2E3DD2- | 
[V:2] A2G2A2F2 | 
[V:1] D2^C2D4 ||  
[V:2] E4D4 ||  
[V:1] A4A2A2 | 
[V:2] A4c2c2 | 
[V:1] A2A2A4 | 
[V:2] c2c2c4 | 
[V:1] A2A2A4 | 
[V:2] c2c2c4 | 
[V:1] A4z4 | 
[V:2] A4z4 | 
[V:1] A4A2A2 | 
[V:2] c4c2c2 | 
[V:1] G4F4 | 
[V:2] B4A4 | 
[V:1] G2A4GF | 
[V:2] B2c2A4 | 
[V:1] E2F4ED | 
[V:2] G2A4GF | 
[V:1] C2D4^C2 | 
[V:2] E2D2E4 | 
[V:1] D4z4 ||  
[V:2] D4z4 ||  
[V:1] A2A2A2A2 | 
[V:2] A2A2c2c2 | 
[V:1] A2A2A4 | 
[V:2] c2c2c4 | 
[V:1] A2A2A2A2 | 
[V:2] c2c2c2c2 | 
[V:1] A4A4 | 
[V:2] c4A4 | 
[V:1] z4A2A2 | 
[V:2] z4c2c2 | 
[V:1] A4G2F2 | 
[V:2] c4B2A2 | 
[V:1] G2A4G2 | 
[V:2] B2c4B2 | 
[V:1] F2E3DD2- | 
[V:2] A2G2A2F2 | 
[V:1] D2^C2D4 ||  
[V:2] E4D4 ||  
[V:1] A2A2A2A2 | 
[V:2] A2A2c2c2 | 
[V:1] A2A2A2A2 | 
[V:2] c2c2c2c2 | 
[V:1] A4z4 | 
[V:2] A4z4 | 
[V:1] A2A2A4 | 
[V:2] c2c2c4 | 
[V:1] G2F2E2F2- | 
[V:2] B2A2G2A2- | 
[V:1] FED4^C2 | 
[V:2] A2F2E4 | 
[V:1] D4z4 ||  
[V:2] D4z4 ||  
[V:1] A4A2A2 | 
[V:2] A4c2c2 | 
[V:1] A4A2A2 | 
[V:2] c4c2c2 | 
[V:1] A2A2A4 | 
[V:2] c2c2A4 | 
[V:1] z4A4 | 
[V:2] z4c4 | 
[V:1] G2E2F2G2- | 
[V:2] B2G2A2B2 | 
[V:1] G2F2D2E2- | 
[V:2] G2A2F2G2- | 
[V:1] ED^CB,C4 | 
[V:2] GFEDE4 | 
[V:1] D4z4 ||  
[V:2] D4z4 ||  
[V:1] A2A2A2A2 | 
[V:2] A2A2c2c2 | 
[V:1] A2A2A2A2 | 
[V:2] c2c2c2c2 | 
[V:1] A4A4 | 
[V:2] A4c4 | 
[V:1] G2A2B2c2- | 
[V:2] B2c2d2c2 | 
[V:1] cBA4^G2 | 
[V:2] A4B4 | 
[V:1] A4z4 | 
[V:2] A4z4 | 
[V:1] A2A2A2A2 | 
[V:2] c2c2c2c2 | 
[V:1] A4G2F2 | 
[V:2] c4B2A2 | 
[V:1] E2F4ED | 
[V:2] G2A4GF | 
[V:1] C2D4^C2 | 
[V:2] E2D2E4 | 
[V:1] D4z4 |]  
[V:2] D4z4 |]  



